**kern	**kern	**kern	**kern
*staff3	*staff4	*staff1	*staff2
*clefF4	*clefF4	*clefG2	*clefG2
*k[f#c#]	*k[f#c#]	*k[f#c#]	*k[f#c#]
*M2/4	*M2/4	*M2/4	*M2/4
*D:	*D:	*D:	*D:
=-	=-	=-	=-
2r	2r	2r	(8.AL
.	.	.	32BLL
.	.	.	32c#JJJ)
.	.	.	(8.dL
.	.	.	32eLL
.	.	.	32f#JJJ)
=129	=129	=129	=129
2r	(8.AAAL	2r	(4g
.	32BBBLL	.	.
.	32CC#JJJ)	.	.
.	(8.DDL	.	8.f#L)
.	32EELL	.	16dJk
.	32FF#JJJ)	.	.
=130	=130	=130	=130
2r	(4GG	(8.aL	4c#
.	.	32bLL	.
.	.	32cc#JJJ)	.
.	8.FF#L)	(8.ddL	4r
.	16DDJk	32eeLL	.
.	.	32ff#JJJ)	.
=131	=131	=131	=131
(8.AAL	4CC#	(4gg	2r
32BBLL	.	.	.
32C#JJJ)	.	.	.
(8.DL	4DD	8.ff#L)	.
32ELL	.	16ddJk	.
32F#JJJ)	.	.	.
=132	=132	=132	=132
4G	4GG	[2a	(8.AL
.	.	.	32BLL
.	.	.	32c#JJJ)
[4AA	4FF# 4F#	.	(8.dL
.	.	.	32eLL
.	.	.	32f#JJJ)
=133	=133	=133	=133
2AA]	4EE 4E	(8.aL]	4g
.	.	32bLL	.
.	.	32cc#JJJ)	.
.	4DD 4D	8.ddL	4f#
.	.	16eeJk	.
=134	=134	=134	=134
2r	8AA	8.ff#L	4dd
.	8r	.	.
.	.	16ggJk	.
.	[4AAA	(8.aaL	4ee 4gg
.	.	32bbLL	.
.	.	32ccc#JJJ)	.
=135	=135	=135	=135
2r	(8.AAAL]	8ddd	8dd 8ff#
.	.	8r	8r
.	32BBBLL	.	.
.	32CC#JJJ)	.	.
.	8DD	4r	4r
.	8r	.	.
=136:|!	=136:|!	=136:|!	=136:|!
*-	*-	*-	*-
